assets/bonusesMobBg.svg

<svg width="75" height="75" viewBox="0 0 75 75" fill="none" xmlns="http://www.w3.org/2000/svg">
<rect x="26.7798" y="19.7793" width="13.2429" height="26.4857" transform="rotate(-45 26.7798 19.7793)" fill="#FF513F"/>
<rect width="13.2429" height="26.4857" transform="matrix(-0.707107 -0.707106 0.707107 -0.707106 45.5 38.5098)" fill="#FF513F"/>
<path d="M17.1452 48.707H10.4165V64.6599H17.1452V48.707Z" fill="#001E20"/>
<path d="M17.1452 56.6834H10.4165L17.1452 48.707H23.8739L17.1452 56.6834Z" fill="#001E20"/>
<path d="M17.1452 56.6836H10.4165L17.1452 64.66H23.8739L17.1452 56.6836Z" fill="#001E20"/>
<path d="M30.5938 56.6836H23.874L30.5938 64.66H37.3225L30.5938 56.6836Z" fill="#001E20"/>
<path d="M30.5938 48.707L23.874 56.6834H30.5938L37.3225 48.707H30.5938Z" fill="#001E20"/>
<path d="M44.051 56.6836H37.3223L44.051 64.66H50.7708L44.051 56.6836Z" fill="#001E20"/>
<path d="M44.051 48.707L37.3223 56.6834H44.051L50.7708 48.707H44.051Z" fill="#001E20"/>
<path d="M54.1398 48.707H47.4111V64.6599H54.1398V48.707Z" fill="#001E20"/>
<path d="M60.8596 60.6672L64.2284 56.6834L57.4997 48.707H50.771L56.76 55.8011L60.8596 60.6672Z" fill="#001E20"/>
<path d="M57.4997 56.6836H64.2284L57.4997 64.66H50.771L57.4997 56.6836Z" fill="#001E20"/>
<path d="M17.2703 10.416H10.4995V38.541H17.2703V10.416Z" fill="#001E20"/>
</svg>

<svg xmlns="http://www.w3.org/2000/svg" width="75" height="75" fill="none" xmlns:v="https://vecta.io/nano"><g fill="#ff513f"><path d="M26.78 19.78l9.364-9.364 18.728 18.728-9.364 9.364z"/><path d="M45.5 38.5l-9.364-9.364 18.728-18.728 9.364 9.364z"/></g><g fill="#001e20"><path d="M17.145 48.707h-6.73V64.66h6.73V48.707z"/><path d="M17.145 56.683h-6.73l6.73-7.976h6.73l-6.73 7.976z"/><path d="M17.145 56.684h-6.73l6.73 7.976h6.73l-6.73-7.976zm13.45 0h-6.72l6.72 7.976h6.73l-6.73-7.976z"/><path d="M30.594 48.707l-6.72 7.976h6.72l6.73-7.976h-6.73zm13.456 7.977h-6.73l6.73 7.976h6.72l-6.72-7.976z"/><path d="M44.05 48.707l-6.73 7.976h6.73l6.72-7.976h-6.72z"/><path d="M54.14 48.707h-6.73V64.66h6.73V48.707z"/><path d="M60.86 60.667l3.37-3.984-6.73-7.976h-6.73l10.09 11.96z"/><path d="M57.5 56.684h6.73L57.5 64.66h-6.73l6.73-7.976zM17.27 10.416H10.5V38.54h6.77V10.416z"/></g></svg>
